zengarden/SVG/Asset_22.svg

<svg xmlns="http://www.w3.org/2000/svg" version="1.1" viewBox="0 0 104.56 104.58">
 <title>Asset 22</title>
 <style>.cls-1{fill:#cecece;}</style>
 <g style="fill:#e6e6e6" data-name="Layer 2">
  <g style="fill:#e6e6e6" data-name="Layer 1">
   <path style="fill:#e6e6e6" d="m60.06 47.28a1.58 1.58 0 0 0 0.52 -0.09l29.63-10.46a1.57 1.57 0 0 0 1 -2 1.55 1.55 0 0 0 -2 -0.94l-29.67 10.47a1.56 1.56 0 0 0 0.52 3z"/>
   <path style="fill:#e6e6e6" d="m38.82 19.16a1.56 1.56 0 0 0 -2 -0.95l-4.89 1.73a1.56 1.56 0 0 0 0.52 3 1.58 1.58 0 0 0 0.52 -0.09l4.89-1.73a1.55 1.55 0 0 0 0.96 -1.96z"/>
   <path style="fill:#e6e6e6" d="m36.38 31.28-0.16-0.28a1 1 0 0 0 -0.19 -0.23 1.57 1.57 0 0 0 -1.69 -0.35 1.69 1.69 0 0 0 -0.49 0.35 1.5 1.5 0 0 0 -0.47 1.1 1.72 1.72 0 0 0 0.12 0.59 1.3 1.3 0 0 0 0.35 0.49 1.38 1.38 0 0 0 0.49 0.35 1.72 1.72 0 0 0 0.59 0.12 1.89 1.89 0 0 0 0.61 -0.12 1.3 1.3 0 0 0 0.46 -0.3 1.46 1.46 0 0 0 0.45 -1.08 1.09 1.09 0 0 0 0 -0.31 1.63 1.63 0 0 0 -0.07 -0.33z"/>
   <path style="fill:#e6e6e6" d="m30.74 44a1.52 1.52 0 0 0 -0.51 -0.34 1.6 1.6 0 0 0 -1.69 0.34 1.56 1.56 0 0 0 -0.33 0.5 1.58 1.58 0 0 0 -0.12 0.61 1.56 1.56 0 0 0 0.45 1.08 1.54 1.54 0 0 0 1.1 0.47 1.72 1.72 0 0 0 0.59 -0.12 1.3 1.3 0 0 0 0.51 -0.35 0.71 0.71 0 0 0 0.19 -0.23 1.35 1.35 0 0 0 0.15 -0.26c0-0.1 0.06-0.21 0.08-0.3a1 1 0 0 0 0 -0.29 1.57 1.57 0 0 0 -0.11 -0.61 1.77 1.77 0 0 0 -0.31 -0.5z"/>
   <path style="fill:#e6e6e6" d="m97.11 79.18a52.27 52.27 0 0 0 6.38 -37.41 53.89 53.89 0 0 0 -1.9 -6.86 52.27 52.27 0 0 0 -96.45 -5.16 52.26 52.26 0 0 0 91.86 49.64zm-28.44 19.48a48.81 48.81 0 0 1 -28.67 1.22l12.59-4.44a1.55 1.55 0 0 0 -1 -2.93l-16.4 5.77s0 0-0.09 0a49.44 49.44 0 0 1 -9.5 -4.78l42.79-15.06a1.55 1.55 0 1 0 -1 -2.93l-44.91 15.85a48.71 48.71 0 0 1 -12.93 -14.8l47.82-16.89a1.55 1.55 0 1 0 -1 -2.92l-48.26 17a48.38 48.38 0 0 1 -2.14 -5.12c-0.23-0.65-0.44-1.31-0.64-2l28.42-10a1.55 1.55 0 1 0 -1 -2.93l-28.28 10a50.3 50.3 0 0 1 -1.19 -7.64l18.17-6.41a1.55 1.55 0 0 0 -1 -2.93l-17.3 6.1a49.29 49.29 0 0 1 4.49 -21l13.88-4.9a1.55 1.55 0 1 0 -1 -2.93l-10.8 3.8a49 49 0 0 1 60.36 -21.31l-17.38 6.13a1.55 1.55 0 0 0 0.51 3 1.58 1.58 0 0 0 0.52 -0.09l20.49-7.21a49.51 49.51 0 0 1 8.23 5.15l-38.45 13.6a1.55 1.55 0 0 0 0.51 3 1.54 1.54 0 0 0 0.49 -0.06l40.23-14.23a48.45 48.45 0 0 1 5.67 6.06l-23.9 8.43a1.56 1.56 0 0 0 0.52 3 1.58 1.58 0 0 0 0.52 -0.09l24.77-8.74a49.41 49.41 0 0 1 5.83 11.48 47.72 47.72 0 0 1 1.55 5.35l-23.83 8.44a1.55 1.55 0 0 0 0.51 3 1.58 1.58 0 0 0 0.52 -0.09l23.42-8.27a49.18 49.18 0 0 1 0.65 7.81l-64.46 22.78a1.55 1.55 0 0 0 0.52 3 1.58 1.58 0 0 0 0.52 -0.09l63.32-22.34a48.75 48.75 0 0 1 -1.36 8.5l-17.7 6.22a1.55 1.55 0 0 0 0.52 3 1.51 1.51 0 0 0 0.51 -0.08l15.67-5.52a49.07 49.07 0 0 1 -4.4 9.68l-18.49 6.53a1.55 1.55 0 0 0 0.51 3 1.54 1.54 0 0 0 0.52 -0.09l14.63-5.14a48.93 48.93 0 0 1 -23.1 17.06z"/>
   <path style="fill:#e6e6e6" d="m49.76 36.36-10.69 3.77a1.56 1.56 0 0 0 0.52 3 1.58 1.58 0 0 0 0.52 -0.09l10.68-3.77a1.55 1.55 0 0 0 -1 -2.93z"/>
   <path style="fill:#e6e6e6" d="m63.53 88.3a1.23 1.23 0 0 0 -0.29 0.07 1.75 1.75 0 0 0 -0.27 0.16 1.5 1.5 0 0 0 -0.24 0.18 1.56 1.56 0 0 0 0 2.21l0.24 0.19a1.15 1.15 0 0 0 0.27 0.14 1.23 1.23 0 0 0 0.29 0.09h0.3a1.56 1.56 0 0 0 1.1 -2.66 1.57 1.57 0 0 0 -1.4 -0.38z"/>
   <path style="fill:#e6e6e6" d="m27.51 78.28l-6.42 2.27a1.55 1.55 0 0 0 0.52 3 1.61 1.61 0 0 0 0.52 -0.08l6.41-2.27a1.55 1.55 0 0 0 -1 -2.93z"/>
  </g>
 </g>
</svg>

<svg xmlns="http://www.w3.org/2000/svg" viewBox="0 0 104.56 104.58"><title>Asset 22</title><style>.cls-1{fill:#cecece;}</style><g id="Layer_2" data-name="Layer 2"><g id="Layer_1-2" data-name="Layer 1"><path d="M60.06,47.28a1.58,1.58,0,0,0,.52-.09L90.21,36.73a1.57,1.57,0,0,0,1-2,1.55,1.55,0,0,0-2-.94L59.54,44.26a1.56,1.56,0,0,0,.52,3Z"/><path d="M38.82,19.16a1.56,1.56,0,0,0-2-.95l-4.89,1.73a1.56,1.56,0,0,0,.52,3,1.58,1.58,0,0,0,.52-.09l4.89-1.73A1.55,1.55,0,0,0,38.82,19.16Z"/><path d="M36.38,31.28,36.22,31a1,1,0,0,0-.19-.23,1.57,1.57,0,0,0-1.69-.35,1.69,1.69,0,0,0-.49.35,1.5,1.5,0,0,0-.47,1.1,1.72,1.72,0,0,0,.12.59,1.3,1.3,0,0,0,.35.49,1.38,1.38,0,0,0,.49.35,1.72,1.72,0,0,0,.59.12,1.89,1.89,0,0,0,.61-.12A1.3,1.3,0,0,0,36,33a1.46,1.46,0,0,0,.45-1.08,1.09,1.09,0,0,0,0-.31A1.63,1.63,0,0,0,36.38,31.28Z"/><path d="M30.74,44a1.52,1.52,0,0,0-.51-.34,1.6,1.6,0,0,0-1.69.34,1.56,1.56,0,0,0-.33.5,1.58,1.58,0,0,0-.12.61,1.56,1.56,0,0,0,.45,1.08,1.54,1.54,0,0,0,1.1.47,1.72,1.72,0,0,0,.59-.12,1.3,1.3,0,0,0,.51-.35.71.71,0,0,0,.19-.23,1.35,1.35,0,0,0,.15-.26c0-.1.06-.21.08-.3a1,1,0,0,0,0-.29,1.57,1.57,0,0,0-.11-.61A1.77,1.77,0,0,0,30.74,44Z"/><path d="M97.11,79.18a52.27,52.27,0,0,0,6.38-37.41h0a53.89,53.89,0,0,0-1.9-6.86A52.27,52.27,0,0,0,5.14,29.75,52.26,52.26,0,0,0,97,79.39ZM68.67,98.66A48.81,48.81,0,0,1,40,99.88l12.59-4.44a1.55,1.55,0,0,0-1-2.93L35.19,98.28s0,0-.09,0a49.44,49.44,0,0,1-9.5-4.78L68.39,78.44a1.55,1.55,0,1,0-1-2.93L22.48,91.36A48.71,48.71,0,0,1,9.55,76.56L57.37,59.67a1.55,1.55,0,1,0-1-2.92l-48.26,17a48.38,48.38,0,0,1-2.14-5.12c-.23-.65-.44-1.31-.64-2l28.42-10a1.55,1.55,0,1,0-1-2.93L4.47,63.7a50.3,50.3,0,0,1-1.19-7.64l18.17-6.41a1.55,1.55,0,0,0-1-2.93L3.15,52.82a49.29,49.29,0,0,1,4.49-21l13.88-4.9a1.55,1.55,0,1,0-1-2.93L9.72,27.79A49,49,0,0,1,70.08,6.48L52.7,12.61a1.55,1.55,0,0,0,.51,3,1.58,1.58,0,0,0,.52-.09L74.22,8.31a49.51,49.51,0,0,1,8.23,5.15L44,27.06a1.55,1.55,0,0,0,.51,3A1.54,1.54,0,0,0,45,30L85.23,15.77a48.45,48.45,0,0,1,5.67,6.06L67,30.26a1.56,1.56,0,0,0,.52,3,1.58,1.58,0,0,0,.52-.09l24.77-8.74a49.41,49.41,0,0,1,5.83,11.48,47.72,47.72,0,0,1,1.55,5.35L76.36,49.7a1.55,1.55,0,0,0,.51,3,1.58,1.58,0,0,0,.52-.09l23.42-8.27a49.18,49.18,0,0,1,.65,7.81L37,74.93a1.55,1.55,0,0,0,.52,3,1.58,1.58,0,0,0,.52-.09L101.36,55.5A48.75,48.75,0,0,1,100,64L82.3,70.22a1.55,1.55,0,0,0,.52,3,1.51,1.51,0,0,0,.51-.08L99,67.62A49.07,49.07,0,0,1,94.6,77.3L76.11,83.83a1.55,1.55,0,0,0,.51,3,1.54,1.54,0,0,0,.52-.09L91.77,81.6A48.93,48.93,0,0,1,68.67,98.66Z"/><path d="M49.76,36.36,39.07,40.13a1.56,1.56,0,0,0,.52,3,1.58,1.58,0,0,0,.52-.09l10.68-3.77a1.55,1.55,0,0,0-1-2.93Z"/><path d="M63.53,88.3a1.23,1.23,0,0,0-.29.07,1.75,1.75,0,0,0-.27.16,1.5,1.5,0,0,0-.24.18,1.56,1.56,0,0,0,0,2.21l.24.19a1.15,1.15,0,0,0,.27.14,1.23,1.23,0,0,0,.29.09c.1,0,.2,0,.3,0a1.56,1.56,0,0,0,1.1-2.66A1.57,1.57,0,0,0,63.53,88.3Z"/><path d="M27.51,78.28l-6.42,2.27a1.55,1.55,0,0,0,.52,3,1.61,1.61,0,0,0,.52-.08l6.41-2.27a1.55,1.55,0,0,0-1-2.93Z"/></g></g></svg>
